themes/ColwichTheme/static/images/icons/gift.svg

<svg viewBox="0 0 512 512" xmlns="http://www.w3.org/2000/svg"><path d="m280.1 44.45c16.2-27.54 45.8-44.45 77.7-44.45h2.2c48.6 0 88 39.4 88 88s-39.4 88-88 88h-72v80h-64v-80h-72c-48.6 0-88-39.4-88-88s39.4-88 88-88h2.2c31.9 0 61.5 16.91 77.7 44.45l24.1 41.01zm-89.6 24.33c-7.6-12.87-21.4-20.78-36.3-20.78h-2.2c-22.1 0-40 17.91-40 40 0 22.1 17.9 40 40 40h73.3zm96.2 59.22h73.3c22.1 0 40-17.9 40-40 0-22.09-17.9-40-40-40h-2.2c-14.9 0-28.7 7.91-36.3 20.78zm-62.7 384v-224h64v224z"/><path d="m152 176h72v80h-192c-17.67 0-32-14.3-32-32v-64c0-17.7 14.33-32 32-32h41.6c14.56 28.5 44.2 48 78.4 48zm328 80h-192v-80h72c34.2 0 63.8-19.5 78.4-48h41.6c17.7 0 32 14.3 32 32v64c0 17.7-14.3 32-32 32zm-448 32h192v224h-144c-26.51 0-48-21.5-48-48zm256 224v-224h192v176c0 26.5-21.5 48-48 48z" opacity=".4"/></svg>

<svg xmlns="http://www.w3.org/2000/svg" viewBox="0 0 512 512"><!--! Font Awesome Pro 6.1.1 by @fontawesome - https://fontawesome.com License - https://fontawesome.com/license (Commercial License) Copyright 2022 Fonticons, Inc. --><defs><style>.fa-secondary{opacity:.4}</style></defs><path class="fa-primary" d="M280.1 44.45C296.3 16.91 325.9 0 357.8 0H360C408.6 0 448 39.4 448 88C448 136.6 408.6 176 360 176H288V256H224V176H152C103.4 176 64 136.6 64 88C64 39.4 103.4 0 152 0H154.2C186.1 0 215.7 16.91 231.9 44.45L256 85.46L280.1 44.45zM190.5 68.78C182.9 55.91 169.1 48 154.2 48H152C129.9 48 112 65.91 112 88C112 110.1 129.9 128 152 128H225.3L190.5 68.78zM286.7 128H360C382.1 128 400 110.1 400 88C400 65.91 382.1 48 360 48H357.8C342.9 48 329.1 55.91 321.5 68.78L286.7 128zM224 512V288H288V512H224z"/><path class="fa-secondary" d="M152 176H224V256H32C14.33 256 0 241.7 0 224V160C0 142.3 14.33 128 32 128H73.6C88.16 156.5 117.8 176 152 176zM480 256H288V176H360C394.2 176 423.8 156.5 438.4 128H480C497.7 128 512 142.3 512 160V224C512 241.7 497.7 256 480 256zM32 288H224V512H80C53.49 512 32 490.5 32 464V288zM288 512V288H480V464C480 490.5 458.5 512 432 512H288z"/></svg>
